Obsidian/actions/16s/delete-comment.svg

<svg height="16" viewBox="0 0 16 16" width="16" xmlns="http://www.w3.org/2000/svg"><path d="m2.96875 2s-1.96875 0-1.96875 2v6c0 1.108.892 2 2 2h5l2 3.003906 2-3.003906h1s2 0 2-2v-6c0-2-2-2-2-2zm2.03125 2h1.4140625l1.5859375 1.5859375 1.5859375-1.5859375h1.4140625v1.4140625l-1.5859375 1.5859375 1.5859375 1.5859375v1.4140625h-1.4140625l-1.5859375-1.5859375-1.5859375 1.5859375h-1.4140625v-1.4140625l1.5859375-1.5859375-1.5859375-1.5859375z" fill="#bebebe"/></svg>

<svg xmlns="http://www.w3.org/2000/svg" width="16" height="16" version="1.1" viewBox="0 0 16 16">
 <defs>
  <style id="current-color-scheme" type="text/css">
   .ColorScheme-Text { color:#bebebe; } .ColorScheme-Highlight { color:#4285f4; }
  </style>
 </defs>
 <path style="fill:currentColor" class="ColorScheme-Text" d="M 2.96875 2 C 2.96875 2 1 2 1 4 L 1 10 C 1 11.108 1.892 12 3 12 L 8 12 L 10 15.003906 L 12 12 L 13 12 C 13 12 15 12 15 10 L 15 4 C 15 2 13 2 13 2 L 2.96875 2 z M 5 4 L 6.4140625 4 L 8 5.5859375 L 9.5859375 4 L 11 4 L 11 5.4140625 L 9.4140625 7 L 11 8.5859375 L 11 10 L 9.5859375 10 L 8 8.4140625 L 6.4140625 10 L 5 10 L 5 8.5859375 L 6.5859375 7 L 5 5.4140625 L 5 4 z"/>
</svg>
